X:1
T:Fugue sur le nom de Bach
T:Fugue sur le nom de Bach
T:Extraite de Fugues op.17
T:N. RIMSKY-KORSAKOV (1844-1908)
T:by Mutopia-2008/01/26-1271 - public domain
T:by Mutopia-2008/01/26-1271 - public domain
T:by Mutopia-2008/01/26-1271 - public domain
C:N. RIMSKY-KORSAKOV (1844-1908)
Z:by Mutopia-2008/01/26-1271 - public domain
%%score { ( 1 4 ) | ( 2 3 5 ) }
L:1/8
Q:1/4=140
M:4/2
K:Bb
V:1 treble nm="Piano" snm="Pno."
V:4 treble 
V:2 bass 
V:3 bass 
V:5 bass 
V:1
"^Allegro moderato" z16 | z16 | z4 F4 =E8 | G8 ^F8 | B8 A8 | c8 =B6 c2 | d2 =A2 A2 A2 A2 G^F G4- | %7
 GA B2 B2 B2 B2 AG A4 | B8 A8 | z8 =e2 c2 c2 c2 | c2 BA B4- Bc _d2 d2 d2 | _d2 cB c8 =B4 | %12
 B2 B2 B2 B2 B2 =AG A4 | A8- A6 =B2 | c8 z2 =A2 A2 A2 | A2 G^F G4 z8 | z16 | z16 | z16 | B8 A8 | %20
 c8 =B6 c2 | d2 A2 A2 A2 A2 G^F G4- | GA B2 B2 B2 B2 AG A4 | GA B2 B2 B2 B2 AG A4 | %24
 EG _A2 A2 A2 A2 GF G4- | G2 F=E F8- !fermata!F4 | z16 | z16 | z16 | z4 F4 E8 | G8 ^F8 | G4 B8 A4 | %32
 c8 =B4- BG=AB | c2 c2 c2 c2 c2 _BA B4- | B2 AG A4- A2 G^F G4- | G2 ^F=E TF4{G} !fermata!G8 |] %36
V:2
"^B" B,8"^A" A,8 |"^C" C8"^H" =B,6 C2 | D2 =A,2 A,2 A,2 A,2 G,^F, G,4- | %3
 G,A, B,2 B,2 B,2 B,2 A,G, A,4 | D12 D,=E,F,G, | _A,4 F2 E2 D8 | D4 A,2 =B,2 C8 | _B,6 ^C2 D6 =C2 | %8
 B,4 G,A,B,C D2 D2 D2 D2 | D2 C=B, C4- CD _E2 E2 E2 | E2 DC D4 B,4- B,C_DE | F4 C4 =D8- | %12
 D2 _D2 C8 z4 | z2 =D2 D2 D2 D2 C=B, C4- | CD E2 E2 E2 E2 DC D4 | D,6 =E,2 F,2 F,2 F,2 F,2 | %16
 F,2 _E,D, E,4 z2 G,2 G,2 G,2 | G,2 F,=E, F,4- F,G, _A,2 A,2 A,2 | _A,2 G,F, G,8- G,=A,B,C | %19
 D12 z4 | z16 | F,8 =E,8 | G,8 ^F,2 =C2 C2 C2 | C2 B,A, G,A,B,C D2 D2 D2 D2 | %24
 _A,4 F,G,A,B, C2 C2 C2 C2 | z2 B,2 B,2 B,2 B,2 A,G, A,4 | z12 F,4 | =E,8 G,8 | ^F,8 G,8- | %29
 G,2 F,2 =E,2 D,2 C,4 =B,,2 C,2 | D,16 | z2 G,2 G,2 G,2 G,2 F,=E, F,4- | %32
 F,G, _A,2 A,2 A,2 A,2 G,F, G,2 F,2- | F,2 E,D, E,4 D,2 D2 D2 D2 | D2 _D=B, C2 C2 C2 B,A, _B,4 | %35
 A,8 !fermata!D,8 |] %36
V:3
 z2 G,2 G,2 G,2 G,2 F,=E, F,4- | F,G, _A,2 A,2 A,2 A,2 G,F, G,4- | G,2 F,=E, D,4 z2 E,2 E,2 E,2 | %3
 =E,2 D,^C, D,8- D,=C,B,,A,, | x5 A,,B,,C, D,2 D,2 D,2 D,2 | C,2 C,=B,, C,D,E,F, G,8 | %6
 x4 F,4 =E,8 | G,8 ^F,8 | G,8 D,6 =E,2 | F,6 E,D, C,4 z4 | z2 G,2 G,2 G,2 G,2 F,=E, F,4- | %11
 F,G, _A,2 A,2 A,2 A,2 G,^F, G,4- | G,2 F,2 =E,4 F,6 E,2 | D,4- D,=E,F,G, A,2 A,,2 A,,2 A,,2 | %14
 G,,2 G,,^F,, G,,A,,B,,C, D,4 z4 | =B,,8 A,,8 | C,8 =B,,6 C,2 | D,6 =E,2 F,6 _E,D, | C,8 B,,4 z4 | %19
 z2 G,2 G,2 G,2 G,2 F,=E, F,4- | F,G, _A,2 A,2 A,2 A,2 G,F, G,4 | D,4 F,,G,,A,,=B,, C,8 | %22
 B,,6 C,2 D,8 | G,8 D,6 =E,2 | F,8 C,6 D,_E, | F,12- !fermata!F,4 | z4 B,,4 A,,8 | %27
 C,8 =B,,2 A,,2 B,,2 C,2 | D,2 C,2 _B,,2 A,,2 G,,2 A,,2 B,,2 C,2 | D,4 D,,4 A,,8 | G,,8 D,,8 | %31
 G,,16- | G,,16 | G,,16- | G,,16- | G,,8 !fermata!G,,8 |] %36
V:4
 x16 | x16 | x16 | x16 | z2 G2 G2 G2 G2 F=E F4- | FG _A2 A2 A2 A2 GF G4- | G2 F=E D4 z2 E2 E2 E2 | %7
 =E2 D^C D2 z2 z8 | z2 G2 G2 G2 G2 F=E F4- | FG _A2 A2 A2 A2 GF G4 | G8 B6 _AG | %11
 _A4 F2 E2 D4- DD=E^F | G8 =F4 z4 | F8 =E8 | G8 ^F8 | z2 D2 D2 D2 D2 C=B, C4- | %16
 CD _E2 E2 E2 E2 DC D4 | z2 D2 D2 D2 D2 C=B, C2 C2- | CD E2 E2 E2 E2 DC D4 | G8 A6 G2 | %20
 F6 _E2 D8- | D4 z4 z2 =E2 E2 E2 | =E2 D^C D4 z8 | z8 D=E F2 F2 F2 | C4 z4 CD E2 E2 E2 | %25
 D4 _D4 C4 !fermata!C4 | x16 | x16 | z12 B,4 | A,8 C8 | =B,2 A,2 _B,2 C2 D2 _E2 D2 C2 | B,6 C2 D8 | %32
 C8 D8 | C4- CDEF G6 F2 | =E4 _E4 z2 D2 D4 | D6 C2 !fermata!=B,8 |] %36
V:5
 x16 | x16 | x16 | x16 | G,,4- G,, x11 | x16 | x16 | x16 | x16 | x16 | x16 | x16 | x16 | x16 | %14
 z4 x12 | x16 | x16 | x16 | x16 | x16 | x16 | x16 | x16 | x16 | x16 | x16 | x16 | x16 | x16 | x16 | %30
 x16 | x16 | x16 | x16 | x16 | x16 |] %36

